!!!OTL: Wedding March
!!!COM: Mendelssohn, Felix
!!!ODT: unknown
!!!YOR: Real Book of Favorite Classics
!!!YOY: 1999
!!!AST: Occasional
!!!YEC: Brian Luke, 2001
**kern	**harm
*k[]	*k[]
*M4/4	*M4/4
*C:	*C:
*>A	*>A
=1	=1
2cc	vi
4.b	V7/iii
8f#	.
=2	=2
4a	iii
4g	.
4f	IV
4d	.
=3	=3
4c	Ic
8B	.
8c	.
4d	V7
8.G	.
16d	.
=4	=4
4e	I;
*>A'	*>A'
8C	.
8E	.
8G	.
8c	.
8e	.
8g	.
=5	=5
2cc	vi
4.b	V7/iii
8f#	.
=6	=6
4a	iii
4g	.
4f	IV
4d	.
=7	=7
4c	Ic
8B	.
8c	.
4e	.
8.d	V7
16e	.
=8	=8
2d	.
2c	I;
*-	*-
